X:1
T:Rattlin Roarin Wullie
T:Rattlin Roarin Wullie
T:Robert Burns
C:Robert Burns
%%score 1 { 2 | 3 }
L:1/8
Q:1/4=140
M:9/8
K:G
V:1 treble nm="Mandolin" snm="Mdn."
V:2 treble nm="Accordion" snm="Acc."
V:3 bass 
V:1
"^Allegro""^Roland FR4XVUPG1-07 Mandolin" ABA [DF]2 D FGA | ABA F2 D GFE | ABA [DF]2 D FGA | %3
 ABA F2 D FGA |: DDD FEF AAd | d2 A =F2 G AGA | D2 D FGA ccc | d2 d F2 G A2 B | c2 c EFG ccc | %9
 d2 d F2 G A2 B | ccc F2 G AAd | F2 D D2 E D2 A :| DDD FEF AAA | ccc FFG AGA | DDD FEF AAB | %15
 ddd F2 G A2 B | ccc E2 F GcB | d2 d F2 G A2 B | ccc F2 G AAd | F2 D D2 E D2 A | ABA [DF]2 D FGA | %21
 ABA F2 D GFE | ABA [DF]2 D FGA | ABA F2 D FGA | ddd [DF]2 G cBA | ded [DF]2 G cBA | ccc F2 G AAd | %27
 F2 D D2 E D2 A!D.C.! | ABA [DF]2 D FGA | ABA F2 D GFE | ABA [DF]2 D FGA | ABA F2 D FGA | %32
 z2 d6 z |] %33
V:2
 ABA [DF]2 D FGA | ABA F2 D GFE | ABA [DF]2 D FGA | ABA F2 D FGA |: DDD FEF AAd | d2 A =F2 G AGA | %6
w: ||||Verse1:Rat- tl- in', ro- a- rin' Wull- ie o|he held tae the fa- ir o|
w: ||||Verse2:Wull- ie cam se- ll yer fidd- le o|sell yer fiddle sae fi- ne o|
 D2 D FGA ccc | d2 d F2 G A2 B | c2 c EFG ccc | d2 d F2 G A2 B | ccc F2 G AAd | F2 D D2 E D2 A :| %12
w: for tae se- ll his fidd- le and|buy some i- ther ware but|par- tin' w- i' his fidd- le a|saut tear blin't his e'e but|ratt- l- in' roar- in' Wull- ie your|wel- come hame tae me. *|
w: Wull' cam se- ll yer fidd- le and|buy a pint o wine but|if I se- ll me fidd- le the|worl' wid think I'm mad for|mo- ny a rant- in' day o me|fiddle and me hae had. *|
 DDD FEF AAA | ccc FFG AGA | DDD FEF AAB | ddd F2 G A2 B | ccc E2 F GcB | d2 d F2 G A2 B | %18
w: As I cam' do- on by Croch- a- llan|cann- ill- y keek- it I ben a- nd|ratt- lin' roa- r- in Wull- ie wi- s|sitt- in' at yon boor- den aye|sitt- in' at yon boor- den aye a-|mong guid com- pan- y an'|
w: ||||||
 ccc F2 G AAd | F2 D D2 E D2 A | ABA [DF]2 D FGA | ABA F2 D GFE | ABA [DF]2 D FGA | ABA F2 D FGA | %24
w: ratt- l- in' roar- in' Wull- ie your|wel- come hame tae me. *|||||
w: ||||||
 ddd [DF]2 G cBA | ded [DF]2 G cBA | ccc F2 G AAd | F2 D D2 E D2 A | ABA [DF]2 D FGA | %29
w: |||||
w: |||||
 ABA F2 D GFE | ABA [DF]2 D FGA | ABA F2 D FGA | z2 d6 z |] %33
w: ||||
w: ||||
V:3
"_D" .D,,2"D" .[DFA]"_A" .A,,2"D" .[DFA]"_D" .D,,2"D" .[DFA] | %1
"_C" .C,,2"C" .[CEG]"_G" .G,,2"C" .[CEG]"_C" .C,,2"C" .[CEG] | %2
"_D" .D,,2"D" .[DFA]"_A" .A,,2"D" .[DFA]"_D" .D,,2"D" .[DFA] | %3
"_C" .C,,2"C" .[CEG]"_G" .G,,2"C" .[CEG]"_C" .C,,2"C" .[CEG] |: %4
"_D" .D,,2"D" .[DFA]"_A" .A,,2"D" .[DFA]"_D" .D,,2"D" .[DFA] | %5
"_C" .C,,2"C" .[CEG]"_G" .G,,2"C" .[CEG]"_C" .C,,2"C" .[CEG] | %6
"_D" .D,,2"D" .[DFA]"_A" .A,,2"D" .[DFA]"_D" .D,,2"D" .[DFA] | %7
"_D" .D,,2"D" .[DFA]"_A" .A,,2"D" .[DFA]"_D" .D,,2"D" .[DFA] | %8
"_C" .C,,2"C" .[CEG]"_G" .G,,2"C" .[CEG]"_C" .C,,2"C" .[CEG] | %9
"_D" .D,,2"D" .[DFA]"_A" .A,,2"D" .[DFA]"_D" .D,,2"D" .[DFA] | %10
"_C" .C,,2"C" .[CEG]"_D" .D,,2"G" .[G,B,D]"_G" .G,,2"G" .[G,B,D] | %11
"_D" .D,,2"D" .[DFA]"_A" .A,,2"D" .[DFA]"_D" .D,,2"D" .[DFA] :| %12
"_D" .D,,2"D" .[DFA]"_A" .A,,2"D" .[DFA]"_D" .D,,2"D" .[DFA] | %13
"_C" .C,,2"C" .[CEG]"_G" .G,,2"C" .[CEG]"_C" .C,,2"C" .[CEG] | %14
"_D" .D,,2"D" .[DFA]"_A" .A,,2"D" .[DFA]"_D" .D,,2"D" .[DFA] | %15
"_D" .D,,2"D" .[DFA]"_A" .A,,2"D" .[DFA]"_D" .D,,2"D" .[DFA] | %16
"_C" .C,,2"C" .[CEG]"_G" .G,,2"C" .[CEG]"_C" .C,,2"C" .[CEG] | %17
"_D" .D,,2"D" .[DFA]"_A" .A,,2"D" .[DFA]"_D" .D,,2"D" .[DFA] | %18
"_C" .C,,2"C" .[CEG]"_D" .D,,2"G" .[G,B,D]"_G" .G,,2"G" .[G,B,D] | %19
"_D" .D,,2"D" .[DFA]"_A" .A,,2"D" .[DFA]"_D" .D,,2"D" .[DFA] | %20
"_D" .D,,2"D" .[DFA]"_A" .A,,2"D" .[DFA]"_D" .D,,2"D" .[DFA] | %21
"_C" .C,,2"C" .[CEG]"_G" .G,,2"C" .[CEG]"_C" .C,,2"C" .[CEG] | %22
"_D" .D,,2"D" .[DFA]"_A" .A,,2"D" .[DFA]"_D" .D,,2"D" .[DFA] | %23
"_C" .C,,2"C" .[CEG]"_G" .G,,2"C" .[CEG]"_C" .C,,2"C" .[CEG] | %24
"_D" .D,,2"D" .[DFA]"_A" .A,,2"D" .[DFA]"_D" .D,,2"D" .[DFA] | %25
"_D" .D,,2"D" .[DFA]"_A" .A,,2"D" .[DFA]"_D" .D,,2"D" .[DFA] | %26
"_C" .C,,2"C" .[CEG]"_D" .D,,2"G" .[G,B,D]"_G" .G,,2"G" .[G,B,D] | %27
"_D" .D,,2"D" .[DFA]"_A" .A,,2"D" .[DFA]"_D" .D,,2"D" .[DFA] | %28
"_D" .D,,2"D" .[DFA]"_A" .A,,2"D" .[DFA]"_D" .D,,2"D" .[DFA] | %29
"_C" .C,,2"C" .[CEG]"_G" .G,,2"C" .[CEG]"_C" .C,,2"C" .[CEG] | %30
"_D" .D,,2"D" .[DFA]"_A" .A,,2"D" .[DFA]"_D" .D,,2"D" .[DFA] | %31
"_C" .C,,2"C" .[CEG]"_G" .G,,2"C" .[CEG]"_C" .C,,2"C" .[CEG] | z2"D/D" [D,,DFA]6 z |] %33

